X: 51
T: Heathcot's Horse Race
%%VWML:Wrights-3753-p26-0
F: http://www.vwml.org/record/Wrights/3753/p26
B: Daniel Wright "Wright's Compleat Collection of Celebrated Country Dances" 1740 p.26
S: http://library.efdss.org/cgi-bin/dancebooks.cgi
Z: 2014 John Chambers <jc:trillian.mit.edu>
M: 6/4
L: 1/8
K: D
%-------------------------
[|\
D4d2 c4B2 | A2F2A2 E4D2 | FGA2A2 A3Bc2 | d2c2d2 B4cd |\
e3fe2 g2E2F2 | G4G2 G3ABc | d3cd2 A2A,2C2 | D3ED2 D6 |]
[|\
d4b2 a4g2 | f2d2f2 B4cd | e3fg2 f2e2d2 | c4A2 A3A,B,C |\
D3CDE F3EFG | A4f2 e4d2 | F3GA2 A,3B,C2 | D3ED2 D6 |] %-------------------------
%%begintext align
%% The 1st Cu turn half round and cast off, clap hands with
%% the 3d Cu. and turn back again into their Place .| the
%% 2d Cu. do the same :| the 1st Cu. lead thro the 2d Cu.
%% crossway and go round the 2d and 3d Cu. then foot it
%% and cast up, then the 1st Man turn the 2d Man half
%% round the 1st Wo. do the same .| Clap Hands with your
%% Partners, the 1st Cu. cast off, the 2d Cu. turn up the
%% Middle into their own Places at the same time.
%%endtext
%-------------------------
%%sep 2 4 300
T: Lorrain's Delight
%R: reel
B: Daniel Wright "Wright's Compleat Collection of Celebrated Country Dances" 1740 p.26
S: http://library.efdss.org/cgi-bin/dancebooks.cgi
Z: 2014 John Chambers <jc:trillian.mit.edu>
M: C
L: 1/8
K: Gm
%-------------------------
[|\
G2Bd g4 | G2Bd g4 | d2cd B2AB | cBAG A2D2 |\
G2Bd g4 | G2Bd g4 | d2cd B2cd | D2^F2 G4 |]
[|\
B2df b4 | B2df b4 | b2ab g2ab | abag ^f2d2 |\
b2fd B4 | b2fd B4 | ecBA G2g2 | bag^f g4 |]
%-------------------------
%%center Each strain once.
%%begintext align
%% The 1st and 2d Cu. ballance or set on both
%% feet to their Partners, fall back Men and We. the %% 1st and 2d Man ballance to each other, the 1st %% and 2d Wo. doing the same all four meet and %% single .| right and left quite round, the 1st Cu. %% casting down into the 2d Cu. Place.
%%endtext %------------------------- %%sep 2 4 300
